X: 1
T: Give My Regards to Broadway   [G]
S: SAFD #a0523a
O: George M Cohan (1904)
% for the musical play "Little Johnny Jones" which debuted in 1904 in New York.
%R: march
F: http://ancients.sudburymuster.org/mus/ssp/pdf/clemC0.pdf
Z: 2020 John Chambers <jc:trillian.mit.edu>
M: 2/4
L: 1/16
K: G
|:  "G"DE2F G2A2 | "Am7"G4 "D7"F3D | "C"EEEE "D7"F2F2 | "G"D4- D4 |
|[1 "G"DE2F G2E2 | "D"F2G2 AFED | "A7"G2E2 F2G2 | "D7"A4- Azz2 :|
%"G"DE2F G2A2 | "Am7"G4 "D7"F3D | EEEE F2F2 | "G"D4- D3z |
|[2 "E"B^G2E "E7"c2B2 | "Am"A2"E7"^G2 "Am"A=GAG | "G"B3G "D7"G2A2 | "G"G4- G2z2 |]


